X:49
T:Lango Lee. TJD.49
T:Banks of the Dee,aka. TJD.49
M:6/8
L:1/8
Q:1/4=120
S:T.J.Dixon MS2, Lincolnshire, early 19thC
R:jig
C:’Single Bow’
N:Repeat mark added at end
A:Lincolnshire, Holton le Moor
Z:vmp.R.Greig2010
K:G
D|DEF GAB|ced cBA|BGE DEG|BcA G2D|!
DEF GAB|ced cBA|BGE DEG|BcAG2:|!
|:B|B2cd2d|edc dBG|Bcd efg|GAG FED|!
cec BdB|AGA BGE|GFE Ddc|BcAG2:|]

